Faience-ng/16x16/apps/mate.svg

<?xml version="1.0" encoding="UTF-8" standalone="no"?>
<!-- Created with Inkscape (http://www.inkscape.org/) -->

<svg
   xmlns:dc="http://purl.org/dc/elements/1.1/"
   xmlns:cc="http://creativecommons.org/ns#"
   xmlns:rdf="http://www.w3.org/1999/02/22-rdf-syntax-ns#"
   xmlns:svg="http://www.w3.org/2000/svg"
   xmlns="http://www.w3.org/2000/svg"
   xmlns:xlink="http://www.w3.org/1999/xlink"
   xmlns:sodipodi="http://sodipodi.sourceforge.net/DTD/sodipodi-0.dtd"
   xmlns:inkscape="http://www.inkscape.org/namespaces/inkscape"
   width="16"
   height="16"
   id="svg2"
   sodipodi:version="0.32"
   inkscape:version="0.92.2 5c3e80d, 2017-08-06"
   version="1.0"
   sodipodi:docname="mate.svg"
   inkscape:output_extension="org.inkscape.output.svg.inkscape"
   style="display:inline">
  <defs
     id="defs4">
    <inkscape:perspective
       sodipodi:type="inkscape:persp3d"
       inkscape:vp_x="0 : 8 : 1"
       inkscape:vp_y="0 : 1000 : 0"
       inkscape:vp_z="16 : 8 : 1"
       inkscape:persp3d-origin="8 : 5.3333333 : 1"
       id="perspective26" />
    <linearGradient
       inkscape:collect="always"
       id="linearGradient3327">
      <stop
         style="stop-color:#000000;stop-opacity:1;"
         offset="0"
         id="stop3330" />
      <stop
         style="stop-color:#000000;stop-opacity:0;"
         offset="1"
         id="stop3333" />
    </linearGradient>
    <linearGradient
       id="ButtonColor"
       x1="10.31979"
       y1="21"
       x2="10.31979"
       y2="0.99929649"
       gradientUnits="userSpaceOnUse">
      <stop
         style="stop-color:#29669f;stop-opacity:1;"
         offset="0"
         id="stop3189" />
      <stop
         style="stop-color:#88b6e0;stop-opacity:1;"
         offset="1"
         id="stop3191" />
    </linearGradient>
    <linearGradient
       inkscape:collect="always"
       xlink:href="#linearGradient3327"
       id="linearGradient3192"
       x1="9.0574636"
       y1="10.202822"
       x2="9.0574636"
       y2="-12.198761"
       gradientUnits="userSpaceOnUse"
       gradientTransform="translate(0,5.8006549)" />
    <linearGradient
       inkscape:collect="always"
       xlink:href="#linearGradient4418"
       id="linearGradient3204"
       x1="1"
       y1="9"
       x2="15"
       y2="9"
       gradientUnits="userSpaceOnUse"
       gradientTransform="translate(-17,-2)" />
    <linearGradient
       inkscape:collect="always"
       xlink:href="#ButtonColor"
       id="linearGradient3173"
       gradientUnits="userSpaceOnUse"
       gradientTransform="translate(-16,-1)"
       x1="1"
       y1="9"
       x2="15"
       y2="9" />
    <linearGradient
       inkscape:collect="always"
       xlink:href="#ButtonColor"
       id="linearGradient3177"
       gradientUnits="userSpaceOnUse"
       gradientTransform="translate(-16,-1)"
       x1="1"
       y1="9"
       x2="15"
       y2="9" />
    <linearGradient
       inkscape:collect="always"
       xlink:href="#ButtonColor"
       id="linearGradient3179"
       gradientUnits="userSpaceOnUse"
       gradientTransform="matrix(0,-1,1,0,-1,16)"
       x1="1"
       y1="9"
       x2="15"
       y2="9" />
    <linearGradient
       inkscape:collect="always"
       xlink:href="#linearGradient3327"
       id="linearGradient3612"
       x1="8"
       y1="15"
       x2="8"
       y2="-1"
       gradientUnits="userSpaceOnUse" />
    <linearGradient
       inkscape:collect="always"
       xlink:href="#linearGradient3327"
       id="linearGradient3629"
       x1="0"
       y1="8"
       x2="29.017237"
       y2="8"
       gradientUnits="userSpaceOnUse"
       gradientTransform="matrix(0,-1,1,0,0,16)" />
    <inkscape:perspective
       id="perspective3768"
       inkscape:persp3d-origin="0.5 : 0.33333333 : 1"
       inkscape:vp_z="1 : 0.5 : 1"
       inkscape:vp_y="0 : 1000 : 0"
       inkscape:vp_x="0 : 0.5 : 1"
       sodipodi:type="inkscape:persp3d" />
    <linearGradient
       inkscape:collect="always"
       xlink:href="#linearGradient3700-2"
       id="linearGradient3181"
       x1="-3.0607977"
       y1="27.258198"
       x2="-3.0607977"
       y2="7.2536583"
       gradientUnits="userSpaceOnUse"
       gradientTransform="translate(12.119372,-7.2581967)" />
    <linearGradient
       id="linearGradient3700-2">
      <stop
         style="stop-color:#4da614;stop-opacity:1;"
         offset="0"
         id="stop3702-0" />
      <stop
         style="stop-color:#80cd43;stop-opacity:1;"
         offset="1"
         id="stop3704-0" />
    </linearGradient>
    <linearGradient
       y2="7.2536583"
       x2="-3.0607977"
       y1="27.258198"
       x1="-3.0607977"
       gradientTransform="translate(-12.880628,-13.258197)"
       gradientUnits="userSpaceOnUse"
       id="linearGradient3777"
       xlink:href="#linearGradient3700-2"
       inkscape:collect="always" />
    <inkscape:perspective
       id="perspective3787"
       inkscape:persp3d-origin="0.5 : 0.33333333 : 1"
       inkscape:vp_z="1 : 0.5 : 1"
       inkscape:vp_y="0 : 1000 : 0"
       inkscape:vp_x="0 : 0.5 : 1"
       sodipodi:type="inkscape:persp3d" />
    <linearGradient
       id="linearGradient3412">
      <stop
         id="stop3414"
         offset="0"
         style="stop-color:#ffffff;stop-opacity:0.59836066;" />
      <stop
         id="stop3416"
         offset="1"
         style="stop-color:#ffffff;stop-opacity:0;" />
    </linearGradient>
    <inkscape:perspective
       id="perspective3815"
       inkscape:persp3d-origin="0.5 : 0.33333333 : 1"
       inkscape:vp_z="1 : 0.5 : 1"
       inkscape:vp_y="0 : 1000 : 0"
       inkscape:vp_x="0 : 0.5 : 1"
       sodipodi:type="inkscape:persp3d" />
    <linearGradient
       inkscape:collect="always"
       xlink:href="#linearGradient4127"
       id="linearGradient3788"
       gradientUnits="userSpaceOnUse"
       gradientTransform="matrix(0.29152455,0,0,0.27768667,-1.9905482,-3.5533862)"
       x1="48.894489"
       y1="63.32412"
       x2="39.807999"
       y2="29.412874" />
    <linearGradient
       id="linearGradient4127">
      <stop
         style="stop-color:#3f3f3f;stop-opacity:1;"
         offset="0"
         id="stop4129" />
      <stop
         style="stop-color:#949494;stop-opacity:1;"
         offset="1"
         id="stop4131" />
    </linearGradient>
    <linearGradient
       inkscape:collect="always"
       xlink:href="#linearGradient3412"
       id="linearGradient3732"
       gradientUnits="userSpaceOnUse"
       gradientTransform="matrix(0.24228937,0,0,0.23078855,-35.912565,-3.0989847)"
       x1="94.560738"
       y1="23.599932"
       x2="115.1422"
       y2="81.218826" />
    <linearGradient
       inkscape:collect="always"
       xlink:href="#linearGradient4127"
       id="linearGradient3734"
       gradientUnits="userSpaceOnUse"
       gradientTransform="matrix(0.24228937,0,0,0.23078855,-23.798096,-3.0989845)"
       x1="48.894489"
       y1="63.32412"
       x2="39.807999"
       y2="29.412874" />
    <inkscape:perspective
       id="perspective3834"
       inkscape:persp3d-origin="0.5 : 0.33333333 : 1"
       inkscape:vp_z="1 : 0.5 : 1"
       inkscape:vp_y="0 : 1000 : 0"
       inkscape:vp_x="0 : 0.5 : 1"
       sodipodi:type="inkscape:persp3d" />
    <radialGradient
       inkscape:collect="always"
       xlink:href="#linearGradient4113"
       id="radialGradient3614"
       gradientUnits="userSpaceOnUse"
       gradientTransform="matrix(0.2316624,-1.4334953e-7,1.1943282e-7,0.1930114,-35.84926,-36.191)"
       cx="206.54721"
       cy="236.23465"
       fx="206.54721"
       fy="236.23465"
       r="58.01997" />
    <linearGradient
       id="linearGradient4113">
      <stop
         id="stop4115"
         offset="0"
         style="stop-color:#b0eb80;stop-opacity:1;" />
      <stop
         id="stop4117"
         offset="1"
         style="stop-color:#81cf32;stop-opacity:1;" />
    </linearGradient>
    <radialGradient
       r="58.01997"
       fy="236.23465"
       fx="206.54721"
       cy="236.23465"
       cx="206.54721"
       gradientTransform="matrix(0.18532992,-1.1467962e-7,9.5546256e-8,0.15440912,-30.279408,-28.909032)"
       gradientUnits="userSpaceOnUse"
       id="radialGradient3843"
       xlink:href="#linearGradient4113"
       inkscape:collect="always" />
    <linearGradient
       inkscape:collect="always"
       xlink:href="#linearGradient4418"
       id="linearGradient3181-9"
       x1="-3.0607977"
       y1="27.258198"
       x2="-3.0607977"
       y2="7.2536583"
       gradientUnits="userSpaceOnUse"
       gradientTransform="translate(12.119372,-7.2581967)" />
    <linearGradient
       id="linearGradient4418">
      <stop
         id="stop4420"
         offset="0"
         style="stop-color:#3b8132;stop-opacity:1;" />
      <stop
         id="stop4422"
         offset="1"
         style="stop-color:#55c845;stop-opacity:1;" />
    </linearGradient>
    <linearGradient
       id="linearGradient5932-3-2-4">
      <stop
         style="stop-color:#ff7c53;stop-opacity:1;"
         offset="0"
         id="stop5934-3-2-9" />
      <stop
         id="stop5940-1-4-5"
         offset="0.5"
         style="stop-color:#f21919;stop-opacity:1;" />
      <stop
         style="stop-color:#db1414;stop-opacity:1;"
         offset="0.5"
         id="stop5942-5-4-7" />
      <stop
         style="stop-color:#9b1818;stop-opacity:1;"
         offset="1"
         id="stop5936-2-5-0" />
    </linearGradient>
    <linearGradient
       id="linearGradient5944-6-9-3">
      <stop
         style="stop-color:#f0f0f0;stop-opacity:1;"
         offset="0"
         id="stop5946-9-5-0" />
      <stop
         id="stop5952-4-9-7"
         offset="0.5"
         style="stop-color:#e6e6e6;stop-opacity:1;" />
      <stop
         style="stop-color:#d2d2d2;stop-opacity:1;"
         offset="0.5"
         id="stop5954-4-7-2" />
      <stop
         style="stop-color:#bebebe;stop-opacity:1;"
         offset="1"
         id="stop5948-6-2-1" />
    </linearGradient>
    <linearGradient
       id="linearGradient5960-0-4-4">
      <stop
         style="stop-color:#c1c1c1;stop-opacity:1;"
         offset="0"
         id="stop5962-7-7-5" />
      <stop
         style="stop-color:#3f3f3f;stop-opacity:1;"
         offset="1"
         id="stop5964-4-1-8" />
    </linearGradient>
    <linearGradient
       inkscape:collect="always"
       xlink:href="#linearGradient5932-3-2-4"
       id="linearGradient3886"
       gradientUnits="userSpaceOnUse"
       x1="59"
       y1="40"
       x2="69"
       y2="40" />
    <linearGradient
       inkscape:collect="always"
       xlink:href="#linearGradient5944-6-9-3"
       id="linearGradient3888"
       gradientUnits="userSpaceOnUse"
       x1="59"
       y1="88"
       x2="69"
       y2="88" />
    <radialGradient
       inkscape:collect="always"
       xlink:href="#linearGradient5960-0-4-4"
       id="radialGradient3890"
       gradientUnits="userSpaceOnUse"
       gradientTransform="matrix(0.644005,-1.4508695e-6,1.4508659e-6,0.6440034,22.699101,22.755712)"
       cx="63.335083"
       cy="63.279507"
       fx="63.335083"
       fy="63.279507"
       r="1.7404202" />
    <linearGradient
       inkscape:collect="always"
       xlink:href="#linearGradient5932-3-2-4"
       id="linearGradient3896"
       gradientUnits="userSpaceOnUse"
       x1="59"
       y1="40"
       x2="69"
       y2="40" />
    <linearGradient
       inkscape:collect="always"
       xlink:href="#linearGradient5944-6-9-3"
       id="linearGradient3898"
       gradientUnits="userSpaceOnUse"
       x1="59"
       y1="88"
       x2="69"
       y2="88" />
    <linearGradient
       inkscape:collect="always"
       xlink:href="#linearGradient5944-6-9-3"
       id="linearGradient3901"
       gradientUnits="userSpaceOnUse"
       x1="59"
       y1="88"
       x2="69"
       y2="88"
       gradientTransform="matrix(0.1531077,0.1531077,-0.11917887,0.11917887,5.8283987,-9.4200828)" />
    <linearGradient
       inkscape:collect="always"
       xlink:href="#linearGradient5932-3-2-4"
       id="linearGradient3904"
       gradientUnits="userSpaceOnUse"
       x1="59"
       y1="40"
       x2="69"
       y2="40"
       gradientTransform="matrix(0.1531077,0.1531077,-0.11917887,0.11917887,5.8283987,-9.4200828)" />
  </defs>
  <sodipodi:namedview
     id="base"
     pagecolor="#ffffff"
     bordercolor="#e7e7e7"
     borderopacity="1"
     inkscape:pageopacity="0.0"
     inkscape:pageshadow="2"
     inkscape:zoom="29.001568"
     inkscape:cx="5.3376642"
     inkscape:cy="8.4538047"
     inkscape:document-units="px"
     inkscape:current-layer="layer1"
     showgrid="true"
     inkscape:showpageshadow="false"
     showguides="false"
     inkscape:guide-bbox="true"
     inkscape:window-width="1364"
     inkscape:window-height="713"
     inkscape:window-x="0"
     inkscape:window-y="26"
     inkscape:window-maximized="1">
    <sodipodi:guide
       orientation="1,0"
       position="0,112"
       id="guide2383"
       inkscape:locked="false" />
    <sodipodi:guide
       orientation="0,1"
       position="26.278146,128"
       id="guide2385"
       inkscape:locked="false" />
    <sodipodi:guide
       orientation="1,0"
       position="128,54.082119"
       id="guide2387"
       inkscape:locked="false" />
    <sodipodi:guide
       orientation="0,1"
       position="78.156291,0"
       id="guide2389"
       inkscape:locked="false" />
    <sodipodi:guide
       orientation="0,1"
       position="60.863576,64.084768"
       id="guide2391"
       inkscape:locked="false" />
    <inkscape:grid
       type="xygrid"
       id="grid3672"
       visible="true"
       enabled="true" />
  </sodipodi:namedview>
  <metadata
     id="metadata7">
    <rdf:RDF>
      <cc:Work
         rdf:about="">
        <dc:format>image/svg+xml</dc:format>
        <dc:type
           rdf:resource="http://purl.org/dc/dcmitype/StillImage" />
        <dc:title />
      </cc:Work>
    </rdf:RDF>
  </metadata>
  <g
     inkscape:label="Button"
     inkscape:groupmode="layer"
     id="layer1">
    <rect
       ry="2"
       rx="2"
       y="0"
       x="-16"
       height="16"
       width="16"
       id="rect3196"
       style="fill:url(#linearGradient3204);fill-opacity:1.0;fill-rule:nonzero;stroke:none"
       transform="matrix(0,-1,1,0,0,0)" />
    <path
       style="opacity:0.4;fill:url(#linearGradient3629);fill-opacity:1;fill-rule:nonzero;stroke:none"
       d="m 0,14 c 0,1.108 0.892,2 2,2 l 12,0 c 1.108,0 2,-0.892 2,-2 L 16,2 C 16,0.892 15.108,0 14,0 L 2,0 C 0.892,0 0,0.892 0,2 l 0,12 z m 0.96875,0 0,-12 C 0.96875,1.416801 1.4168007,0.96875 2,0.96875 l 12,0 c 0.583199,0 1.03125,0.448051 1.03125,1.03125 l 0,12 c 0,0.583199 -0.448051,1.03125 -1.03125,1.03125 l -12,0 C 1.4168007,15.03125 0.96875,14.583199 0.96875,14 z"
       id="rect2835" />
    <path
       style="fill:#ffffff;fill-opacity:1;fill-rule:nonzero;stroke:none;opacity:0.25"
       d="M 2 0.96875 C 1.4168007 0.96875 0.96875 1.4168007 0.96875 2 L 0.96875 3 C 0.96875 2.4168007 1.4168007 1.96875 2 1.96875 L 14 1.96875 C 14.583199 1.96875 15.03125 2.4168007 15.03125 3 L 15.03125 2 C 15.03125 1.4168007 14.583199 0.96875 14 0.96875 L 2 0.96875 z "
       id="path2843" />
    <path
       id="path88"
       d="M 8,0.99999995 A 7,7 0 0 0 2.8145,3.3086 L 4.1504,4.0723 A 5.5,5.5 0 0 1 8,2.5 5.5,5.5 0 0 1 13.5,8 5.5,5.5 0 0 1 8,13.5 5.5,5.5 0 0 1 4.1543,11.926 L 2.8145,12.691 A 7,7 0 0 0 8,15 7,7 0 0 0 15,8 7,7 0 0 0 8,0.99999995 Z M 1,4 v 8 L 8,8 Z M 8,4 A 4,4 0 0 0 5.5293,4.8613 L 7.0117,5.707 A 2.5,2.5 0 0 1 8,5.5 2.5,2.5 0 0 1 10.5,8 2.5,2.5 0 0 1 8,10.5 2.5,2.5 0 0 1 7.0098,10.295 L 5.5254,11.143 A 4,4 0 0 0 8,12 4,4 0 0 0 12,8 4,4 0 0 0 8,4 Z"
       inkscape:connector-curvature="0"
       style="fill:#ffffff" />
  </g>
</svg>

<?xml version="1.0" encoding="UTF-8" standalone="no"?>
<svg xmlns:dc="http://purl.org/dc/elements/1.1/" xmlns:cc="http://creativecommons.org/ns#" xmlns:rdf="http://www.w3.org/1999/02/22-rdf-syntax-ns#" xmlns:svg="http://www.w3.org/2000/svg" xmlns="http://www.w3.org/2000/svg" xmlns:sodipodi="http://sodipodi.sourceforge.net/DTD/sodipodi-0.dtd" xmlns:inkscape="http://www.inkscape.org/namespaces/inkscape" id="svg2" width="16" height="16" version="1.0" sodipodi:docname="mate.svg" inkscape:version="0.92.2 5c3e80d, 2017-08-06">
  <metadata id="metadata31">
    <rdf:RDF>
      <cc:Work rdf:about="">
        <dc:format>image/svg+xml</dc:format>
        <dc:type rdf:resource="http://purl.org/dc/dcmitype/StillImage" />
      </cc:Work>
    </rdf:RDF>
  </metadata>
  <sodipodi:namedview pagecolor="#ffffff" bordercolor="#666666" borderopacity="1" objecttolerance="10" gridtolerance="10" guidetolerance="10" inkscape:pageopacity="0" inkscape:pageshadow="2" inkscape:window-width="640" inkscape:window-height="480" id="namedview29" showgrid="false" inkscape:zoom="14.75" inkscape:cx="8" inkscape:cy="8" inkscape:current-layer="svg2" />
  <defs id="defs4">
    <linearGradient id="linearGradient3204" x1="1" x2="15" y1="9" y2="9" gradientTransform="translate(-17,-2)" gradientUnits="userSpaceOnUse">
      <stop id="stop3189" stop-color="#3b8132" offset="0" />
      <stop id="stop3191" stop-color="#55c845" offset="1" />
    </linearGradient>
    <linearGradient id="linearGradient3629" x2="29.017" y1="8" y2="8" gradientTransform="matrix(0,-1,1,0,0,16)" gradientUnits="userSpaceOnUse">
      <stop id="stop3330" offset="0" />
      <stop id="stop3333" stop-opacity="0" offset="1" />
    </linearGradient>
  </defs>
  <g id="layer1">
    <rect id="rect3196" transform="rotate(-90)" x="-16" width="16" height="16" rx="2" ry="2" fill="url(#linearGradient3204)" />
    <path id="rect2835" d="m0 14c0 1.108 0.892 2 2 2h12c1.108 0 2-0.892 2-2v-12c0-1.108-0.892-2-2-2h-12c-1.108 0-2 0.892-2 2v12zm0.96875 0v-12c0-0.5832 0.44805-1.0312 1.0312-1.0312h12c0.5832 0 1.0312 0.44805 1.0312 1.0312v12c0 0.5832-0.44805 1.0312-1.0312 1.0312h-12c-0.5832 0-1.0312-0.44805-1.0312-1.0312z" fill="url(#linearGradient3629)" opacity=".4" />
    <path id="path2843" d="m2 0.96875c-0.5832 0-1.0312 0.44805-1.0312 1.0312v1c0-0.5832 0.44805-1.0312 1.0312-1.0312h12c0.5832 0 1.0312 0.44805 1.0312 1.0312v-1c0-0.5832-0.44805-1.0312-1.0312-1.0312h-12z" fill="#fff" opacity=".35" />
  </g>
  <defs id="defs21">
    <filter id="w">
      <feGaussianBlur stdDeviation="0.26998568" id="feGaussianBlur13" />
    </filter>
    <linearGradient id="a" gradientUnits="userSpaceOnUse" x1="8" y1="1" x2="8" y2="15">
      <stop stop-color="#fafafa" offset="0" id="stop16" />
      <stop stop-color="#ebebeb" offset="1" id="stop18" />
    </linearGradient>
  </defs>
  <g id="main">
    <path style="opacity:0.4;fill:#000000;filter:url(#w)" inkscape:connector-curvature="0" id="path23" d="M 8,1 A 7,7 0 0 0 2.8145,3.3086 L 4.1504,4.0723 A 5.5,5.5 0 0 1 8,2.5 5.5,5.5 0 0 1 13.5,8 5.5,5.5 0 0 1 8,13.5 5.5,5.5 0 0 1 4.1543,11.926 L 2.8145,12.691 A 7,7 0 0 0 8,15 7,7 0 0 0 15,8 7,7 0 0 0 8,1 Z M 1,4 v 8 L 8,8 Z M 8,4 A 4,4 0 0 0 5.5293,4.8613 L 7.0117,5.707 A 2.5,2.5 0 0 1 8,5.5 2.5,2.5 0 0 1 10.5,8 2.5,2.5 0 0 1 8,10.5 2.5,2.5 0 0 1 7.0098,10.295 L 5.5254,11.143 A 4,4 0 0 0 8,12 4,4 0 0 0 12,8 4,4 0 0 0 8,4 Z" />
    <path d="m8 1a7 7 0 0 0 -5.1855 2.3086l1.3359.7637a5.5 5.5 0 0 1 3.8496 -1.5723 5.5 5.5 0 0 1 5.5 5.5 5.5 5.5 0 0 1 -5.5 5.5 5.5 5.5 0 0 1 -3.8457 -1.574l-1.3398.765a7 7 0 0 0 5.1855 2.309 7 7 0 0 0 7 -7 7 7 0 0 0 -7 -7zm-7 3v8l7-4-7-4zm7 0a4 4 0 0 0 -2.4707 .8613l1.4824.8457a2.5 2.5 0 0 1 .9883 -.2070 2.5 2.5 0 0 1 2.5 2.5 2.5 2.5 0 0 1 -2.5 2.5 2.5 2.5 0 0 1 -.9902 -.205l-1.4844.848a4 4 0 0 0 2.4746 .857 4 4 0 0 0 4 -4 4 4 0 0 0 -4 -4z" fill="#fff" id="base" />
  </g>
</svg>
